neru-dark-classic/22x22/status/non-starred-symbolic.svg

<svg xmlns="http://www.w3.org/2000/svg" width="22" height="22"><path class="warning" d="M11 3.39L8.88 8.88 3 9.2l4.57 3.71-1.51 5.7 1.63-1.06L11 15.4l4.94 3.21-1.51-5.7L19 9.2l-5.88-.32zm0 2.78l1.42 3.68 3.94.21-3.06 2.49 1.01 3.81L11 14.21l-3.31 2.14 1.02-3.8-3.07-2.49 3.94-.21z" fill="#3fb7ff"/></svg>

<?xml version="1.0" encoding="UTF-8" standalone="no"?>
<svg
   xmlns:dc="http://purl.org/dc/elements/1.1/"
   xmlns:cc="http://creativecommons.org/ns#"
   xmlns:rdf="http://www.w3.org/1999/02/22-rdf-syntax-ns#"
   xmlns:svg="http://www.w3.org/2000/svg"
   xmlns="http://www.w3.org/2000/svg"
   xmlns:sodipodi="http://sodipodi.sourceforge.net/DTD/sodipodi-0.dtd"
   xmlns:inkscape="http://www.inkscape.org/namespaces/inkscape"
   width="22"
   height="22"
   version="1.1"
   id="svg4"
   sodipodi:docname="non-starred-symbolic.svg"
   inkscape:version="0.92.1 r">
  <metadata
     id="metadata10">
    <rdf:RDF>
      <cc:Work
         rdf:about="">
        <dc:format>image/svg+xml</dc:format>
        <dc:type
           rdf:resource="http://purl.org/dc/dcmitype/StillImage" />
      </cc:Work>
    </rdf:RDF>
  </metadata>
  <defs
     id="defs8" />
  <sodipodi:namedview
     pagecolor="#ffffff"
     bordercolor="#666666"
     borderopacity="1"
     objecttolerance="10"
     gridtolerance="10"
     guidetolerance="10"
     inkscape:pageopacity="0"
     inkscape:pageshadow="2"
     inkscape:window-width="769"
     inkscape:window-height="480"
     id="namedview6"
     showgrid="false"
     inkscape:zoom="10.727273"
     inkscape:cx="11"
     inkscape:cy="11"
     inkscape:window-x="0"
     inkscape:window-y="0"
     inkscape:window-maximized="0"
     inkscape:current-layer="svg4" />
  <path
     style="fill:#3fb7ff"
     class="warning"
     d="M 11,3.39 8.88,8.88 3,9.2 7.57,12.91 6.06,18.61 7.69,17.55 11,15.4 15.94,18.61 14.43,12.91 19,9.2 13.12,8.88 Z m 0,2.78 1.42,3.68 3.94,0.21 -3.06,2.49 1.01,3.81 L 11,14.21 7.69,16.35 8.71,12.55 5.64,10.06 9.58,9.85 Z"
     id="path2"
     inkscape:connector-curvature="0" />
</svg>
